X:935
T:Xiraldilla de Teberga (MQ 032)
T:Nun tabes (MQ 032)
R:Xiraldilla
C:Tradicional
S:Msica Tradicional Asturiana, (C) Tello & Tito. Asturies, 2001.
S:http://pagina.de/MusTradAst <telloytito@asturies.org>
N:Lo mismo que la anterior es otra de las clsicas canciones de chigre.
A:Asturies
O:Teberga
Z:Manolo Quirs 032
M:3/8
L:1/8
Q:3/8=80
K:C
G
|G2 F|EFG|G2 F|E2 G|F2 E|DEF|E2 D|C2 G|
G2 F|EFG|G2 F|E2 G|F2 E|DEF|E2 D|C2 C|
DDF|E2 D|CCB,|C2 C|DDF|E2 D|CCB,|C3|
